icons/wifi-off-fill.svg

<svg viewBox="0 0 24 24" fill="currentColor" xmlns="http://www.w3.org/2000/svg"><path d="M12.0001 17.9999C12.7144 17.9999 13.3704 18.2496 13.8856 18.6664L12.0001 20.9999L10.1145 18.6664C10.6297 18.2496 11.2857 17.9999 12.0001 17.9999ZM2.80766 1.39331L20.4853 19.071L19.0711 20.4852L15.3895 16.8043L15.1425 17.1106C14.2838 16.416 13.1905 15.9999 12.0001 15.9999C10.81 15.9999 9.71712 16.4156 8.85862 17.1098L6.97363 14.7758C8.24961 13.7441 9.84925 13.0967 11.5964 13.0099L9.82328 11.2375C8.29284 11.5772 6.89439 12.2677 5.71658 13.2201L3.83099 10.8867C4.89946 10.0225 6.10763 9.32426 7.41633 8.83106L5.88489 7.29894C4.69082 7.8327 3.5793 8.51797 2.57479 9.33031L0.689453 6.99662C1.60358 6.25735 2.59156 5.60576 3.64058 5.05467L1.39345 2.80752L2.80766 1.39331ZM16.0844 11.8693L12.2165 8.00231L12.0001 7.99991C15.0948 7.99991 17.9369 9.08129 20.1693 10.8868L18.284 13.2205C17.6163 12.6805 16.8777 12.2247 16.0844 11.8693ZM12.0001 2.99991C16.2849 2.99991 20.22 4.49707 23.3109 6.99679L21.4254 9.33035C18.8497 7.24742 15.5706 5.99991 12.0001 5.99991C11.4284 5.99991 10.8642 6.03189 10.3091 6.09416L7.72455 3.51076C9.09498 3.17689 10.5268 2.99991 12.0001 2.99991Z"/></svg>

<svg xmlns="http://www.w3.org/2000/svg" viewBox="0 0 24 24">
    <g>
        <path fill="none" d="M0 0h24v24H0z"/>
        <path d="M12 18c.714 0 1.37.25 1.886.666L12 21l-1.886-2.334A2.987 2.987 0 0 1 12 18zM2.808 1.393l17.677 17.678-1.414 1.414-3.682-3.68-.247.306A4.98 4.98 0 0 0 12 16a4.98 4.98 0 0 0-3.141 1.11l-1.885-2.334a7.963 7.963 0 0 1 4.622-1.766l-1.773-1.772a9.963 9.963 0 0 0-4.106 1.982L3.83 10.887A12.984 12.984 0 0 1 7.416 8.83L5.885 7.3a15 15 0 0 0-3.31 2.031L.689 6.997c.915-.74 1.903-1.391 2.952-1.942L1.393 2.808l1.415-1.415zM16.084 11.87l-3.868-3.867L12 8c3.095 0 5.937 1.081 8.17 2.887l-1.886 2.334a10 10 0 0 0-2.2-1.352zM12 3c4.285 0 8.22 1.497 11.31 3.997L21.426 9.33A14.937 14.937 0 0 0 12 6c-.572 0-1.136.032-1.69.094L7.723 3.511C9.094 3.177 10.527 3 12 3z"/>
    </g>
</svg>
